!!!COM:	Johannes Ockeghem
!!!CDT:	~1425-1497/02/06
!!!OPR:	Missa Ma maistresse
!!!ONM:	2
!!!OTL:	Gloria
!!!AGN:	Mass; Gloria
!!!SCT:	Ock1009b
!!!SCA:	Ock1009b
!!!voices:	4
!!!voices-OPR:	4
**kern	**kern	**kern	**kern
*staff4	*staff3	*staff2	*staff1
*Ivox	*Ivox	*Ivox	*Ivox
*I"Bassus	*I"Tenor	*I"Contratenor	*I"Discantus
*I'B	*I'T	*I'Ct	*I'D
*>[A,B,C]	*>[A,B,C]	*>[A,B,C]	*>[A,B,C]
*>A	*>A	*>A	*>A
*clefF4	*clefGv2	*clefGv2	*clefG2
*k[b-]	*k[b-]	*k[b-]	*k[b-]
*M3/1	*M3/1	*M3/1	*M3/1
*met(O)	*met(O)	*met(O)	*met(O)
!!section: Et in terra
!!!OMD: Et in terra
=1-	=1-	=1-	=1-
0.r	0.r	1f	1cc
.	.	4f\	2a/
.	.	4e\	.
.	.	4d\	2.dd\
.	.	4c\	.
.	.	2B-\	.
.	.	.	8cc\L
.	.	.	8b-\J
.	.	2c\	2a/
=2	=2	=2	=2
1r	0.r	2B-\	2g/
.	.	2c\	1a
1r	.	1d	.
.	.	.	4g/
.	.	.	4f/
[1C	.	1c	1e
=3	=3	=3	=3
2C/]	1.c	1c	1e
2AA/	.	.	.
1AA	.	1e	1.a
.	2A/	.	.
[1D	1A	1d	.
.	.	.	2f/
=4	=4	=4	=4
2D\]	1.d	1r	2f/
2BB-/	.	.	2d/
2BB-/	.	1.d	0g
2GG/	2B-\	.	.
2r	2B-\	.	.
[2C/	2G/	2e\	.
=5	=5	=5	=5
2C/]	1c	1c	1.a
1F	.	.	.
.	2d\	2A/	.
2D\	1f	2B-\	2f/
2.C/	.	2r	2.g/
.	2e\	2c\	.
4AA/	.	.	4f/
=6	=6	=6	=6
2BB-/	2d\	2d\	2g/
2AA/	1c	2e\	1a
1FF	.	1f	.
.	2A/	.	2f/
1r	1G	1B-	2g/
.	.	.	[2b-\
=7	=7	=7	=7
1F	1.F	1c	2b-\]
.	.	.	2a/
2BB-/	.	2d\	2b-\
2C/	2E/	2c\	2a/
2D\	2D/	2B-\	2b-\
2E\	2C/	4A/	2cc\
.	.	4G/	.
=8	=8	=8	=8
2F\	2.A/	2F/	1a
2C/	.	2E/	.
.	8G/L	.	.
.	8A/J	.	.
1D	4G/	1F	1r
.	4F/	.	.
.	1F	.	.
1C	.	1G	1r
.	2E/	.	.
=9	=9	=9	=9
2r	1F	1F	1.a
1FF	.	.	.
.	1r	2.A/	.
1F	.	.	2f/
.	.	4B-\	.
.	1F	2c\	1a
2D\	.	2d\	.
=10	=10	=10	=10
2E\	1E	2r	1g
2C/	.	2.c\	.
2r	1D	.	1f
.	.	4A/	.
2F\	.	2B-\	.
2G\	2C/	1c	1e
2C/	2E/	.	.
=11	=11	=11	=11
2D\	2D/	2r	2f/
2GG/	1G	2d\	2g/
2r	.	2e\	1a
2D\	2F/	2f\	.
2BB-/	2G/	2d\	2b-\
[2AA/	2A/	2c\	[2cc\
=12	=12	=12	=12
4AA/]	2G/	1e	4cc\]
4BB-/	.	.	4b-\
2C/	1c	.	2g/
1D	.	1d	2a/
.	2B-\	.	2f/
2C/	2c\	2r	2e/
2BB-/	2d\	2G/	4r
.	.	.	[4f/
=13	=13	=13	=13
2AA/	2c\	2A/	4f/]
.	.	.	4e/
2FF/	1f	2.c\	2f/
1C	.	.	1g
.	.	4B-\	.
.	2e\	2G/	.
2r	1f	2.F/	2a/
[2D\	.	.	[2f/
.	.	4G/	.
=14	=14	=14	=14
4D\]	1r	4A/	4f/]
4C/	.	4B-\	4e/
2AA/	.	2c\	2c/
1BB-	1f	2r	1d
.	.	2B-\	.
1C	2e\	[1G	1c
.	[2g\	.	.
=15	=15	=15	=15
2E\	2g\]	2G/]	1r
1F	2c\	2F/	.
.	2d\	2A/	2f/
2E\	1e	2B-\	2g/
1C	.	1c	2a/
.	2e\	.	[2g/
=16	=16	=16	=16
2.C/	2e\	2r	2g/]
.	2e\	2A/	2.cc\
4D\	.	.	.
1E	1e	2G/	.
.	.	.	4b-\
.	.	1c	2g/
1AA	1e	.	2a/
.	.	4B-\	2cc\
.	.	4A/	.
=17	=17	=17	=17
1r	2.g\	2G/	4b-\
.	.	.	4a/
.	.	2A/	1a
.	4f\	.	.
1r	1d	1B-	.
.	.	.	2g/
1AA	[1e	2r	1a
.	.	2A/	.
=18	=18	=18	=18
1C	1e]	2G/	0.r
.	.	2.c\	.
1D	1f	.	.
.	.	4Bni\	.
.	.	4Bni\	.
.	.	4A/	.
2.C/	[1e	2.c\	.
4D\	.	4A/	.
=19	=19	=19	=19
2E\	2e\]	2G/	0.r
1F	2c\	2A/	.
.	2d\	2F/	.
2A\	1c	1f	.
1G	.	.	.
.	2B-\	2e\	.
=20	=20	=20	=20
1F	1c	2f\	2.a/
.	.	2F/	.
.	.	.	4b-\
2BB-/	1r	2G/	2dd\
2AA/	.	2.A/	1cc
1D	2.A/	.	.
.	.	4F/	.
.	.	[2f\	2a/
.	4B-\	.	.
=21	=21	=21	=21
2BB-/	2d\	4f\]	2b-\
.	.	4d\	.
2C/	1c	2e\	2g/
2FF/	.	2c\	1f
2F\	2A/	1d	.
2G\	2B-\	.	1r
2E\	2G/	4c\	.
.	.	4B-\	.
=22	=22	=22	=22
2r	1F	1A	1cc
2F\	.	.	.
1BB-	1r	2B-\	1dd
.	.	2G/	.
1AA	1c	1A	2cc\
.	.	.	[2a/
=23	=23	=23	=23
2FF/	1.d	1D	2a/]
1GG	.	.	2.b-\
.	.	1r	.
.	.	.	4a/
2AA/	2c\	.	1a
2BB-/	1B-	1d	.
2GG/	.	.	2g/
=24	=24	=24	=24
2r	1A	1c	2f/
1AA	.	.	2e/
.	1r	0A	1f
2.FF/	.	.	.
.	1c	.	1e
4GG/	.	.	.
2AA/	.	.	.
=25	=25	=25	=25
2r	1d	2B-\	2d/
2D\	.	2A/	2f/
2G\	2e\	2B-\	2g/
2F\	1f	2A/	1a
1D	.	2.F/	.
.	2d\	.	2f/
.	.	4G/	.
=26	=26	=26	=26
2r	1.c	1.A	1e
1A	.	.	.
.	.	.	2f/
2G\	2d\	2B-\	1g
1E	2.e\	1c	.
.	.	.	2cc\
.	8d\L	.	.
.	8e\J	.	.
=27	=27	=27	=27
1D	1f	1d	2b-\
.	.	.	1a
1r	2e\	1G	.
.	1d	.	1g
1r	.	1A	.
.	2c\	.	2f#i/
=28	=28	=28	=28
1GG	1d	0G	2.g/
.	.	.	8f/L
.	.	.	8e/J
2BB-/	1r	.	2d/
2C/	.	.	2e/
4r	1c	2A/	2f/
4FF/	.	.	.
2C/	.	2G/	2g/
=29	=29	=29	=29
2D\	1B-	2F/	2r
2E\	.	2G/	2g/
2F\	2A/	2r	2a/
2D\	1A	2.F/	2b-\
1C	.	.	1cc
.	.	4D/	.
.	4G/	2E/	.
.	4A/	.	.
=30	=30	=30	=30
1BB-	2.B-\	2F/	2r
.	.	2D/	2f/
.	4A/	.	.
1r	4G/	2E/	2g/
.	4F/	.	.
.	1F	2F/	2a/
1r	.	1G	1b-
.	2E/	.	.
=31	=31	=31	=31
1F	1F	2r	1a
.	.	2F/	.
2E\	1r	2G/	2g/
1D	.	1A	2f/
.	1f	.	1d
2BB-/	.	2B-\	.
=32	=32	=32	=32
2C/	2e\	2G/	2c/
2D\	2.d\	2r	2f/
2BB-/	.	2B-\	2g/
.	4c\	.	.
2.C/	2.c\	2A/	2a/
.	.	2.c\	2g/
4GG/	4B-\	.	.
2C/	4A/	.	2r
.	4G/	4B-\	.
=33	=33	=33	=33
2E\	2c\	2G/	2g/
1D	2d\	2r	2f/
.	2.f\	2F/	2.b-\
1C	.	1c	.
.	4e\	.	4g/
.	2e\	.	2a/
[2BB-/	2d\	[2d\	[2b-\
=34	=34	=34	=34
4BB-/]	1g	4d\]	4b-\]
4C/	.	4c\	4g/
2GG/	.	2d\	2b-\
2AA/	1f	2c\	2cc\
2BB-/	.	2B-\	2dd\
2C/	2e\	2G/	2cc\
2D\	[2d\	2A/	2f/
=35	=35	=35	=35
2E\	4d\]	2G/	2g/
.	4c\	.	.
2F\	4B-\	2F/	2a/
.	4A/	.	.
2G\	2G/	2E/	2b-\
2E\	1c	2.G/	2.g/
1D	.	.	.
.	.	4E/	4a/
.	2Bni\	2F/	2f/
=36	=36	=36	=36
0.Cl	0.cl	0.Gl	0.el
!!LO:LB:i:g=z
=37||	=37||	=37||	=37||
*>B	*>B	*>B	*>B
*clefF4	*clefGv2	*clefGv2	*clefG2
*k[b-]	*k[b-]	*k[b-]	*k[b-]
*M3/1	*M3/1	*M3/1	*M3/1
*met(O)	*met(O)	*met(O)	*met(O)
!!section: Domine fili
!!!OMD: Domine fili
1.F	0.r	0A	0.r
4E\	.	.	.
4D\	.	.	.
2.C/	.	1A	.
8BB-/L	.	.	.
8AA/J	.	.	.
=38	=38	=38	=38
1GG	0.r	1B-	0.r
2FF/	.	2A/	.
1BB-	.	2F/	.
.	.	4.G/	.
.	.	8F/	.
2C/	.	4E/	.
.	.	4D/	.
=39	=39	=39	=39
2.D\	0.r	1F	0.r
4C/	.	.	.
4BB-/	.	1G	.
4AA/	.	.	.
1GG	.	.	.
.	.	4B-\	.
.	.	8A/L	.
.	.	8B-/J	.
2D\	.	4A/	.
.	.	4G/	.
=40	=40	=40	=40
2C/	0.r	2c\	0.r
1D	.	4B-\	.
.	.	2A/	.
.	.	4G/	.
2BB-/	.	2.G/	.
2AA/	.	.	.
.	.	8F/L	.
.	.	8G/J	.
4r	.	4F/	.
[4D\	.	4D/	.
=41	=41	=41	=41
4D\]	0.r	2A/	0.r
2C/	.	.	.
.	.	2G/	.
4BB-/	.	.	.
4AA/	.	4F/	.
4GG/	.	4E/	.
4AA/	.	2C/	.
2C/	.	.	.
.	.	1D	.
8BBni/L	.	.	.
8AA/J	.	.	.
4.BBni/	.	.	.
8AA/	.	.	.
=42	=42	=42	=42
1C	0.r	1C	0.r
1D	.	1r	.
1E	.	1G	.
=43	=43	=43	=43
1F	0.r	1A	0.r
2r	.	1B-	.
2D\	.	.	.
2E\	.	1c	.
2C/	.	.	.
=44	=44	=44	=44
1F	0.r	2c\	0.r
.	.	1d	.
2BB-/	.	.	.
1C	.	2c\	.
.	.	2A/	.
2D\	.	[2B-\	.
=45	=45	=45	=45
1AA	0.r	4B-\]	0.r
.	.	4A/	.
.	.	4G/	.
.	.	4F/	.
2.BB-/	.	2.G/	.
4AA/	.	4F/	.
1FF	.	2.A/	.
.	.	4B-\	.
=46	=46	=46	=46
2r	0.r	1c	0.r
2FF/	.	.	.
2GG/	.	1r	.
1AA	.	.	.
.	.	1F	.
2BB-/	.	.	.
=47	=47	=47	=47
0C	0.r	2.E/	0.r
.	.	4F/	.
.	.	2G/	.
.	.	2.A/	.
1r	.	.	.
.	.	4G/	.
.	.	4F/	.
.	.	4E/	.
=48	=48	=48	=48
0C	0.r	2A/	0.r
.	.	1G	.
.	.	2E/	.
1BB-	.	2D/	.
.	.	[2G/	.
=49	=49	=49	=49
2C/	0.r	2G/]	0.r
2FF/	.	2A/	.
1C	.	2G/	.
.	.	1c	.
1D	.	.	.
.	.	2B-\	.
=50	=50	=50	=50
2E\	0.r	2.c\	0.r
2F\	.	.	.
.	.	4B-\	.
2r	.	1G	.
2E\	.	.	.
2.F\	.	2A/	.
.	.	[2c\	.
4E\	.	.	.
=51	=51	=51	=51
2F\	0.r	2c\]	0.r
4G\	.	2B-\	.
4.E\	.	.	.
.	.	2G/	.
8D/L	.	.	.
8C/	.	.	.
8BB-/J	.	.	.
4AA/	.	4F/	.
4GG/	.	4G/	.
4.C/	.	2A/	.
8D\	.	.	.
4E\	.	4G/	.
4F\	.	4A/	.
=52	=52	=52	=52
4G\	0.r	4G/	0.r
2A\	.	2c\	.
2G\	.	4B-\	.
.	.	2A/	.
4F\	.	.	.
4E\	.	8G/L	.
.	.	8F/	.
4C/	.	8E/	.
.	.	8D/J	.
2E\	.	4C/	.
.	.	2c\	.
2F\	.	.	.
.	.	[4d\	.
=53	=53	=53	=53
2C/	0.r	4d\]	0.r
.	.	2c\	.
2D\	.	.	.
.	.	4F/	.
1AA	.	4E/	.
.	.	2F/	.
.	.	4E/	.
2.BB-/	.	4D/	.
.	.	4C/	.
.	.	2D/	.
4AA/	.	.	.
=54	=54	=54	=54
2FF/	0.r	2C/	0.r
4C/	.	2r	.
4BB-/	.	.	.
2.C/	.	2G/	.
.	.	2A/	.
4AA/	.	.	.
4BB-/	.	2G/	.
2C/	.	.	.
.	.	4E/	.
4AA/	.	[4F/	.
=55	=55	=55	=55
2BB-/	0.r	4F/]	0.r
.	.	4D/	.
2AA/	.	2C/	.
2D\	.	2F/	.
4C/	.	2A/	.
2C/	.	.	.
.	.	1G	.
4BB-/	.	.	.
4C/	.	.	.
4BB-/	.	.	.
=56	=56	=56	=56
4C/	0.r	2C/	0.r
4AA/	.	.	.
4BB-/	.	2D/	.
4AA/	.	.	.
1FF	.	2C/	.
.	.	1F	.
1GG	.	.	.
.	.	2E/	.
=57	=57	=57	=57
0.FFl	0.r	0.Fl	0.r
!!LO:LB:i:g=z
=58||	=58||	=58||	=58||
*>C	*>C	*>C	*>C
*clefF4	*clefGv2	*clefGv2	*clefG2
*k[b-]	*k[b-]	*k[b-]	*k[b-]
*M2/1	*M2/1	*M2/1	*M2/1
*met(C|)	*met(C|)	*met(C|)	*met(C|)
!!section: Qui tollis
!!!OMD: Qui tollis
0C	0r	1.c	1.e
.	.	4B-\	2f/
.	.	4A/	.
=59	=59	=59	=59
1C	0r	1G	1g
1C	.	1E	1g
=60	=60	=60	=60
1AA	0r	1F	1a
1FF	.	1A	1a
=61	=61	=61	=61
1GG	0r	1G	1b-
1GG	.	1G	1b-
=62	=62	=62	=62
1D	0r	2.F/	2.a/
.	.	4D/	4f/
1E	.	1C	1g
=63	=63	=63	=63
1F	1.A	1.c	1a
1F	.	.	[1cc
.	2B-\	4B-\	.
.	.	4A/	.
=64	=64	=64	=64
1E	1c	1G	2cc\]
.	.	.	4b-\
.	.	.	4a/
1E	1c	2r	1g
.	.	2G/	.
=65	=65	=65	=65
1D	1.d	2A/	2r
.	.	1B-	2f/
4BB-/	.	.	2d/
4C/	.	.	.
4D\	4c\	4A/	[2f/
4E\	4B-\	4G/	.
=66	=66	=66	=66
0F	1A	2F/	2f/]
.	.	1c	4e/
.	.	.	4d/
.	1r	.	1c
.	.	2A/	.
=67	=67	=67	=67
2r	1d	2.B-\	1f
2D\	.	.	.
.	.	4A/	.
2E\	1c	2G/	2g/
[2F\	.	2F/	[2a/
=68	=68	=68	=68
2F\]	1d	2D/	2a/]
2G\	.	2d\	2b-\
1E	1e	4c\	1g
.	.	4B-\	.
.	.	2c\	.
=69	=69	=69	=69
1D	1.f	2r	2a/
.	.	2d\	2b-\
1r	.	2A/	2.cc\
.	4e\	[2c\	.
.	4d\	.	4b-\
=70	=70	=70	=70
0r	2c\	4c\]	4a/
.	.	4B-\	4g/
.	2B-\	2G/	1g
.	1c	1A	.
.	.	.	2f#i/
=71	=71	=71	=71
0r	1.d	2G/	2g/
.	.	2F/	2a/
.	.	2D/	2f/
.	2c\	[2E/	[2g/
=72	=72	=72	=72
1r	2B-\	2E/]	2g/]
.	2A/	2C/	2e/
1GG	1B-	1G	1d
=73	=73	=73	=73
2.AA/	2c\	1E	2.c/
.	2A/	.	.
4BB-/	.	.	4d/
2C/	[1A	1r	2e/
[2D\	.	.	2f/
=74	=74	=74	=74
2D\]	2A/]	0r	2d/
2F\	2F/	.	1d
1E	1G	.	.
.	.	.	2c#i/
=75	=75	=75	=75
2D\	0A	1D	0d
2.F\	.	.	.
.	.	2.D/	.
4E\	.	.	.
4D\	.	.	.
4C/	.	4E/	.
=76	=76	=76	=76
2BB-/	2B-\	2F/	0r
1C	2A/	2E/	.
.	2G/	1C	.
2AA/	2F/	.	.
=77	=77	=77	=77
2GG/	1E	1G	0r
2.C/	.	.	.
.	[1A	2.C/	.
4BB-/	.	.	.
4AA/	.	.	.
4GG/	.	4D/	.
=78	=78	=78	=78
2FF/	1A]	2F/	0r
2.C/	.	2.E/	.
.	[1G	.	.
4BB-/	.	4D/	.
2BB-/	.	[2D/	.
=79	=79	=79	=79
2GG/	2G/]	2D/]	0r
1AA	2F/	1C	.
.	[1F	.	.
2BB-/	.	[2D/	.
=80	=80	=80	=80
1FF	2F/]	2D/]	0r
.	2D/	2C/	.
1GG	1E	2r	.
.	.	2BB-/	.
=81	=81	=81	=81
1FF	0F	1C	0r
2r	.	1D	.
2BB-/	.	.	.
=82	=82	=82	=82
2AA/	0r	2.E/	0r
2C/	.	.	.
.	.	4C/	.
2BB-/	.	2D/	.
[2C/	.	2C/	.
=83	=83	=83	=83
2C/]	0r	2E/	0r
2BB-/	.	2D/	.
2GG/	.	2.G/	.
[2C/	.	.	.
.	.	4A/	.
=84	=84	=84	=84
2C/]	0r	2c\	0r
2D\	.	2B-\	.
2F\	.	4A/	.
.	.	2d\	.
2E\	.	.	.
.	.	4c\	.
=85	=85	=85	=85
2D\	0r	2d\	0r
2G\	.	2B-\	.
2E\	.	2.c\	.
[2F\	.	.	.
.	.	4B-\	.
=86	=86	=86	=86
4F\]	1.A	4A/	0r
4E\	.	4G/	.
4D\	.	4F/	.
4C/	.	4E/	.
1D	.	2.F/	.
.	2B-\	.	.
.	.	4G/	.
=87	=87	=87	=87
[0C	1.c	2A/	0e
.	.	1G	.
.	2d\	4A/	.
.	.	4B-\	.
=88	=88	=88	=88
0C]	1e	2c\	1g
.	.	2A/	.
.	1e	1G	1g
=89	=89	=89	=89
2r	1.f	1r	1a
2.F\	.	.	.
.	.	1A	2f/
4E\	.	.	.
4D\	2e\	.	[2f/
4C/	.	.	.
=90	=90	=90	=90
1BB-	1d	1B-	2f/]
.	.	.	2d/
1C	1c	2.G/	1e
.	.	4F/	.
=91	=91	=91	=91
1r	1.d	1D	1f
1GG	.	2r	1g
.	4c\	[2G/	.
.	4B-\	.	.
=92	=92	=92	=92
1AA	1A	4G/]	2r
.	.	8F/L	.
.	.	8E/J	.
.	.	2F/	2cc\
2BB-/	1G	2.G/	2b-\
[2C/	.	.	[2g/
.	.	4C/	.
=93	=93	=93	=93
4C/]	1.B-	2G/	1g]
4BB-/	.	.	.
2C/	.	2E/	.
1D	.	2D/	2f/
.	2A/	[2F/	[2a/
=94	=94	=94	=94
1C	1.c	4F/]	4a/]
.	.	4E/	4g/
.	.	4E/	4g/
.	.	4D/	4f/
2r	.	1F	1a
2FF/	2A/	.	.
=95	=95	=95	=95
2GG/	2B-\	1r	2g/
2AA/	2c\	.	2e/
2BB-/	[1d	2F/	1d
[2GG/	.	[2G/	.
=96	=96	=96	=96
2GG/]	2d\]	4G/]	0r
.	.	4D/	.
2AA/	2c\	2F/	.
2GG/	2B-\	2G/	.
[2D\	2A/	2A/	.
=97	=97	=97	=97
4D\]	1B-	2F/	0r
8C/L	.	.	.
8D/J	.	.	.
2.E\	.	1G	.
.	[1c	.	.
4D\	.	.	.
4C/	.	[2A/	.
4BB-/	.	.	.
=98	=98	=98	=98
2AA/	2c\]	2A/]	0r
2D\	2A/	2F/	.
2C/	[1A	2E/	.
[2D\	.	[2F/	.
=99	=99	=99	=99
4D\]	1A]	4F/]	0r
4C/	.	4E/	.
4BB-/	.	4D/	.
4AA/	.	4C/	.
1BB-	1G	1D	.
=100	=100	=100	=100
1AA	0A	1r	1c
1r	.	1D	1f
=101	=101	=101	=101
0r	0r	2E/	2g/
.	.	2.F/	1a
.	.	4E/	.
.	.	4D/	2a/
.	.	4C/	.
=102	=102	=102	=102
0r	0r	2G/	2b-\
.	.	2F/	2a/
.	.	2G/	2b-\
.	.	2E/	2cc\
=103	=103	=103	=103
2r	0r	1F	1a
2.F\	.	.	.
.	.	1A	1r
4E\	.	.	.
4D\	.	.	.
4C/	.	.	.
=104	=104	=104	=104
2.BB-/	0r	1B-	0r
8AA/L	.	.	.
8GG/J	.	.	.
1FF	.	2A/	.
.	.	2c\	.
=105	=105	=105	=105
2GG/	0r	2B-\	0r
2.AA/	.	1c	.
4BB-/	.	.	.
4C/	.	2A/	.
4D\	.	.	.
=106	=106	=106	=106
1E	0r	2G/	0r
.	.	2C/	.
2AA/	.	2r	.
[2E\	.	2C/	.
=107	=107	=107	=107
4E\]	0r	2G/	0r
4C/	.	.	.
2D\	.	2F/	.
2C/	.	2G/	.
[2F\	.	[2A/	.
=108	=108	=108	=108
4F\]	0r	2A/]	0r
4E\	.	.	.
2C/	.	2G/	.
1D	.	2.F/	.
.	.	8E/L	.
.	.	8D/J	.
=109	=109	=109	=109
4E\	0r	1C	0r
4D\	.	.	.
4C/	.	.	.
4BB-/	.	.	.
2AA/	.	1r	.
2FF/	.	.	.
=110	=110	=110	=110
2r	1.A	0F	0f
1F	.	.	.
4E\	2B-\	.	.
4D\	.	.	.
=111	=111	=111	=111
1C	1c	1G	1e
1C	1c	1A	1e
=112	=112	=112	=112
0BB-	1.d	0B-	2d/
.	.	.	1f
.	4c\	.	4e/
.	4B-\	.	4d/
=113	=113	=113	=113
1F	1A	1c	1c
2r	1A	1F	2c/
2D\	.	.	[2f/
=114	=114	=114	=114
2BB-/	1d	2B-\	2f/]
2D\	.	2A/	2f/
2E\	1c	2G/	2g/
[2F\	.	2F/	[2a/
=115	=115	=115	=115
2F\]	1d	2A/	2a/]
2D\	.	2B-\	2f/
1C	1e	2c\	1g
.	.	[2c\	.
=116	=116	=116	=116
2AA/	1.f	2c\]	1f
1D	.	2F/	.
.	.	1A	2r
4C/	4e\	.	[2f/
4BB-/	4d\	.	.
=117	=117	=117	=117
2AA/	2c\	2r	2f/]
2BB-/	2B-\	2D/	2g/
1AA	1c	2F/	2a/
.	.	2E/	2a/
=118	=118	=118	=118
1GG	1.d	1G	1b-
1D	.	1F	1a
.	4c\	.	.
.	4B-\	.	.
=119	=119	=119	=119
2C/	1A	2E/	2r
1D	.	2F/	1f
.	1B-	1D	.
2BB-/	.	.	4e/
.	.	.	4d/
=120	=120	=120	=120
2AA/	2c\	2E/	1c
1FF	2A/	1F	.
.	[1A	.	[1cc
[2C/	.	2E/	.
=121	=121	=121	=121
4C/]	1A]	1F	2cc\]
4D\	.	.	.
1F	.	.	4b-\
.	.	.	4a/
.	1G	2r	2b-\
2E\	.	2C/	2cc\
=122	=122	=122	=122
2D\	0A	4F/	2f/
.	.	4G/	.
1C	.	4A/	2.e/
.	.	4B-\	.
.	.	2c\	.
.	.	.	4c/
2AA/	.	2C/	2f/
=123	=123	=123	=123
1GG	0r	2D/	2g/
.	.	2E/	2b-\
2FF/	.	2F/	2a/
[2C/	.	2E/	2g/
=124	=124	=124	=124
2C/]	1.c	1C	1e
2AA/	.	.	.
1AA	.	1E	[1a
.	2A/	.	.
=125	=125	=125	=125
1.D	1A	2.F/	2a/]
.	.	.	2f/
.	.	4G/	.
.	[1d	2A/	2f/
2BB-/	.	2B-\	2d/
=126	=126	=126	=126
2BB-/	2d\]	0G	2.g/
2GG/	2B-\	.	.
.	.	.	4f/
2r	2B-\	.	2d/
[2C/	2G/	.	[2e/
=127	=127	=127	=127
2C/]	1c	2C/	2e/]
2FF/	.	2c\	1a
2F\	2d\	2A/	.
2D\	[2f\	2F/	2b-\
=128	=128	=128	=128
1C	2f\]	2.G/	2.cc\
.	2e\	.	.
.	.	4A/	8cc\L
.	.	.	8b-\J
2BB-/	2d\	2B-\	2g/
2AA/	[2c\	2c\	[2a/
=129	=129	=129	=129
1FF	2c\]	2A/	2a/]
.	2A/	2.c\	1f
1C	1G	.	.
.	.	8B-/L	.
.	.	8A/J	.
.	.	4G/	2e/
.	.	4C/	.
=130	=130	=130	=130
[0FFl	[0Fl	1D	[0fl
.	.	1C	.
=131	=131	=131	=131
*	*	*^	*
0FF]	0F]	0Fl\	0cl/	0f]
*	*	*v	*v	*
==	==	==	==
*-	*-	*-	*-
!!!RDF**kern: l=long note in original notation
!!!RDF**kern: i=editorial accidental
!!!RDF**kern: V=start of tuplet marker
!!!RDF**kern: Z=end of tuplet marker
!!!ENC:	Chris Gage 06-13-2012
!!!END:	2012/08/15/
!!!EED:	Jesse Rodin
!!!EEV:	2012/08/15/
!!!ONB:	Translated from MusicXML and edited on 2012/08/15/ by Craig Sapp
!!muse2ps: T^@{OPR}^u^@{ONM}{. }@{OTL}^C^@{COM}^i2I150v85,85,85,150Q8c110
